X: 220
T: unknown
M: 4/4
L: 1/8
R: reel
S: session w/ Eoin O'Sullivan, Feakle, August 2004
K: Edor
B~E3 G2BG|ABBA GEDE|~G3A BAGA|BGdB A2GA|
B~E3 G2BG|ABBA GEDE|G2Bd edBA|GEED EFGA:||
Beed ~e3f|g2fg edBA|G2BG dGBG|GABd edBA|
Beed ~e3f|g2fg edBA|GABd edBA|GEED EFGA:||
